!!!OTL: Die verkaufte M&uuml;llerin (12b), S. 55
!!!id: T0119
**kern
*clefG2
*k[]
*G:
{4d
=1
4g
4g
4a
4a
=2
4b
4a
4g}
=3
{4b
=4
4b
4a
4b
8cc
8ee
=5
4dd
8dd
8cc
4b}
=6
{4dd
=7
4ee
4dd
4cc
4a
=8
4a
4b}
4r
=9
{4b
=10
4cc
4b
4b
4a
=11
4a
4g}
4r
==
*-
!!!minrhy: 8
!!!meters: 4/4 ]  ZZ[4
!!!cut: Die verkaufte M&uuml;llerin (12b), S. 55
!!!reg: Luxemburg
!!!trd: Singendes Volk, Esch-Alzette 1937 posth.
!!!rhy1: X_  X_X_X_X_  X_X_X_
!!!rhy2: X_  X_X_X_XX  X_XXX_
!!!key: T0119  08  G 4/4 ]  ZZ[4
!!!mod: SECHSTONSKALA DUR ?]  AMBITUS[9
!!!kad: 1331
!!!akz: 1231_3353_642_432_
!!!fot: 'a__b__c__d__
!!!for: 'a__b__a__a__
!!!fok: '^a_^__\__\__
!! PHRAS[AUFTAKTIG]
!!!fkt: "erz&auml;hlende Lieder"
!!!bem: RAMMELDINGEN; gesungen von Frau M. Wagener am 17.2.1934
!! THILL, Mathias:
!! PR[21] 2K[0] 2G[4] 3K[13] 3G[10] 4A[6] 4Ü[0] 5A[0] 6K[0] 6G[0]
!! 7K[0] 7G[0] 8A[0] MEHR[0] SI[33] ABS[48] SR[4] SP[29]
!! ST[12] 2k[13] 2g[23] 3k[0] 3g[2] 4d[4] 4ü[0] 5d[0] 6k[0] 6g[4]
!! 7k[0] 7g[0] 8d[0] mehr[0] si[46] dm[-13] sr[35] sp[10]
!! 1F[15] 2F[58] 3F[8] 4F[0] LF[0] 2P[0] 3P[19] 4P[0] TRI[0] DF[4] AB[52]
!! TF[0] U3K[0] U3[0] U4[0] U4Ü[0] U5[0] U6K[0] U6[0] U7K[0] U7[0]
!! N1[0] N2K[0] N2[2] N3K[0] N3[14] N4[14] N4Ü[0] N5[29] N6K[0] N6[12]
!!!n7k: 0] N7[8] O1[8] O2K[0] O2[8] O3K[0] O3[4] HÖ[0
!!!RNB: symbol: &auml;      = a umlaut  (UTF-8: Å„)
!!!RNB: symbol: &uuml;  = u umlaut (UTF-8: Ã¼)
